X: 507
%
U:~=!turn!
T: My Wife's a Wanton Wee Thing
C:Arranged by K.N. Macdonald
O:Scotland
B:Keith Norman MacDonald : "The Skye collection of the best reels & strathspeys extant" : 1887
Z:Ralph Palmer
R:Strathspey
M:C
L:1/8
K:D
(f/e/) | d>g f>e d2 A2 | B<=c A<G Ec E2 | A<d g<f e<d A2 | {/G}F>D E>C D2 D2 ::
d<A G<F G<A =c2 | G>=c E>c Gc E2 | A2 G<FE<D a2 | g<f d<e c<d d2 ::
(fg) a>f d>f a>a | (Tgf)ge cege | (fg) a>f d>f a2 | {aba}(g<f) (d<e) c<d d2 :|


